src/assets/icons/icon-warning.svg

<svg xmlns="http://www.w3.org/2000/svg" width="48" height="48" viewBox="0 0 48 48">
  <path fill="#FFFFFF" fill-rule="evenodd" d="M24,48 C37.254834,48 48,37.254834 48,24 C48,10.745166 37.254834,0 24,0 C10.745166,0 0,10.745166 0,24 C0,37.254834 10.745166,48 24,48 Z M22.4965402,13.1030164 C23.3271937,11.6654101 24.6721035,11.6623183 25.5044703,13.1030164 L35.4961011,30.3969836 C36.3266815,31.8345899 35.6568766,33 33.9920699,33 L14.0079301,33 C12.3466962,33 11.6715912,31.8376817 12.5040311,30.3969836 L22.4965402,13.1030164 Z M22.5792265,18.4260768 C22.5354709,17.6384763 23.1362228,17 23.9297104,17 L24.0702896,17 C24.8598969,17 25.464841,17.6328625 25.4207735,18.4260768 L25.0554191,25.0024554 C25.024812,25.553384 24.5561352,26 24,26 C23.4477153,26 22.9752049,25.5536886 22.9445809,25.0024554 L22.5792265,18.4260768 Z M22.5,29 C22.5,28.1715729 23.1657972,27.5 24,27.5 C24.8284271,27.5 25.5,28.1657972 25.5,29 C25.5,29.8284271 24.8342028,30.5 24,30.5 C23.1715729,30.5 22.5,29.8342028 22.5,29 Z"/>
</svg>

<svg xmlns="http://www.w3.org/2000/svg" viewBox="0 0 48 48"><path fill="#FFF" fill-rule="evenodd" d="M24 48c13.255 0 24-10.745 24-24S37.255 0 24 0 0 10.745 0 24s10.745 24 24 24zm-1.503-34.897c.83-1.438 2.175-1.44 3.007 0l9.992 17.294c.83 1.438.16 2.603-1.504 2.603H14.008c-1.661 0-2.336-1.162-1.504-2.603l9.993-17.294zm.082 5.323A1.334 1.334 0 0 1 23.93 17h.141c.79 0 1.395.633 1.35 1.426l-.365 6.576c-.03.551-.499.998-1.055.998a1.069 1.069 0 0 1-1.055-.998l-.366-6.576zM22.5 29c0-.828.666-1.5 1.5-1.5.828 0 1.5.666 1.5 1.5 0 .828-.666 1.5-1.5 1.5-.828 0-1.5-.666-1.5-1.5z"/></svg>
